X:1
T:Psalm 122. 
T:Tot u hief ick myn ogen lieve Heer
T:Cornelis Boscoop, 1531 - 1573
T:Psalm 122. Tot u hief ick myn ogen lieve Heer
T:(C) Wim Looyestijn - 2018
T:(C) Wim Looyestijn - 2018
T:(C) Wim Looyestijn - 2018
T:(C) Wim Looyestijn - 2018
T:(C) Wim Looyestijn - 2018
T:(C) Wim Looyestijn - 2018
T:(C) Wim Looyestijn - 2018
C:Cornelis Boscoop, 1531 - 1573
Z:(C) Wim Looyestijn - 2018
%%score [ 1 2 3 4 ]
L:1/8
Q:1/4=180
M:4/2
K:F
V:1 alto1 nm="Superius" snm="S"
V:2 alto nm="Contra Tenor" snm="CT"
V:3 tenor nm="Tenor" snm="T"
V:4 bass nm="Bassus" snm="B"
V:1
 x16 | z16 | x16 | D16 | F12 G4 | B12 A4 | G4 F4 G8- | G4 F2 E2 F4 D4 | F6 G2 A8- | %9
w: |||Tot|u hief|ick myn|o- gen lie-|* ve _ Heer, tot|u hief ick|
 A4 G2 F2 E4 D2 E2 | F2 G2 A8 G4- | G4 ^F4 G6 =F_E | D4 _E4 D4 G4 | B4 c2 c2 d4 G4 | B6 AG F4 D4 | %15
w: _ myn _ o- gen _|_ _ lie- *|* ve Heer _ _|hier bo- ven, hier|bo- ven tot u- wen|thro- * * ne, hier|
 F4 F2 G2 A4 B4 | c8 B6 c2 | d4 B8 A4- | A2 G2 G8 F4 | G8 z4 D4 | F4 F2 G2 A6 B2 | %21
w: bo- ven tot u- wen|thro- ne, _|_ tot u-|* wen thro- *|ne, hier|bo- ven tot u- wen|
 c4 B2 A2 G4 d4- | d2 c2 B8 A4 | B6 A2 F2 G2 A4 | D6 E2 F2 G2 A4- | A4 G4 A4 F4 | G4 B8 F4 | %27
w: thro- * * ne, hier-|* * bo- ven|tot _ _ _ u-|wen _ _ _ thro-|* * ne, daer|gy zyt ge-|
 G6 F2 D2 E2 F2 D2 | E2 F2 G4 F4 A4 | B4 B4 A4 d4 | B6 c2 d4 c4 | B4 A8 G4- | G4 F8 E4- | %33
w: se- * * * * *|* * * ten met|gro- ter eer, met|gro- ter eer, daer|gy zyt ge-|* se- ten|
 E4 D8 C4 | D6 E2 F2 G2 A2 F2 | G8 z8 | z4 D4 G2 A2 B2 G2 | A2 B2 c4 B4 A4 | G4 G4 F4 D4 | %39
w: _ met _|gro- * ter _ _ _|eer,|in dy- nen he- mel|al- zoe scho- ne, al-|zoe scho- ne, in|
 G2 A2 B2 G2 A2 B2 c4 | B4 A6 G2 G4- | G4 F4 G4 d4- | d4 c4 d6 c2 | A2 B2 c4 F6 G2 | A2 B2 c8 B4 | %45
w: dy- nen he- mel al- zoe scho-|ne, al- zoe scho-|* ne, in dy-|* nen _ _|_ _ he- mel _|_ _ al- zoe|
 c4 A4 B4 d4- | d4 A4 B6 A2 | F2 G2 A2 F2 G2 A2 B4 | A4 c4 d4 d4 | c4 f4 d6 e2 | d4 c4 B4 A4- | %51
w: scho- ne, daer gy|_ zyt ge- *||se- ten met gro-|ter eer, met gro-|ter eer, daer gy|
 A4 G8 F4- | F4 E8 D4- | D4 C4 D6 E2 | F2 G2 A2 F2 G8 | z8 z4 D4 | G2 A2 B2 G2 A2 B2 c4 | %57
w: _ zyt ge-|* se- ten|_ _ met _|gro- * * * ter|eer,|in dy- en he- mel al- zoe|
 B4 A4 G4 G4 | F4 D4 G2 A2 B2 G2 | A2 B2 c4 B4 A4- | A2 G2 G8 F4 | G16- | G16- | G16 |] %64
w: scho- ne, al- zoe|scho- ne, in dy- nen he-|mel al- zoe scho- ne,|_ _ al zoe|scho-|||
V:2
 x16 | z16 | x16 | A,16 | D12 E4 | F12 F4 | D6 C2 B,4 C4 | D8 z4 D4 | D4 D4 C2 B,2 A,2 G,2 | %9
w: |||Tot|u hief|ick myn|o- gen lie- ve|Heer, tot|u hief ick _ _ _|
 F,4 F,4 G,4 B,4 | B,4 A,4 F,4 C4 | D8 =B,8 | z4 G,4 B,4 B,2 C2 | D4 E4 F4 E4 | D8 z8 | %15
w: _ myn o- gen|lie- ve Heer, lie-|ve Heer|hier bo- ven tot|u- wen thro- *|ne,|
 z4 D4 D4 D2 D2 | E4 C2 D2 E2 F2 G4- | G2 F2 D2 E2 F4 E4 | D8 z4 D4 | E4 E2 F2 G8 | %20
w: hier bo- ven tot|u- * * * * wen|_ _ _ _ thro- *|ne, hier|bo- ven tot ne.|
 z4 D4 D4 D2 D2 | C4 D4 B,8 | D4 D4 F4 F2 _E2 | D4 D4 C8 | B,4 D8 C4 | B,4 B,4 A,8 | G,4 D8 D4 | %27
w: hier bo- ven tot|u- wen thro-|ne, hier- bo- ven tot|u- wen thro-|ne, daer gy|zyt ge- se-|ten daer gy|
 G,4 G,4 B,4 A,4 | z4 D8 D4 | B,2 C2 D2 E2 F8 | z4 G4 F6 _E2 | D4 _E4 E4 C4 | D12 C4 | %33
w: zyt ge- se- ten|zyt ge-|se- * * * ten|met gro- ter|eer, met gro- ter|eer, met|
 B,4 G,4 A,6 G,2 | A,4 B,4 A,4 D4 | C4 B,4 C4 G,4 | D2 E2 F2 D2 E2 F2 G4 | F4 E4 D8 | %38
w: gro- ter eer, met|gro- ter eer, met|gro- ter eer, in|dy- nen he- mel al- zoe schon,|al- zoe schon,|
 z4 G,4 D2 E2 F2 D2 | _E4 D4 D4 C4 | D2 E2 F2 D2 _E4 D2 C2 | D4 D4 C4 B,4 | F6 _E2 D4 D4 | %43
w: in dy- nen he- mel|al- zoe schon, in|dy- nen he- mel al- zoe _|schon, in dy- nen|he- mel al- zoe|
 C8 B,4 D4- | D4 C4 B,4 B,4 | A,8 G,4 D4- | D4 D4 G,4 G,4 | B,4 A,4 z4 D4- | D4 D4 B,2 C2 D2 E2 | %49
w: scho- ne, daer|_ gy zyt ge-|se- ten, daer|_ gy zyt ge-|se- ten, zyt|_ ge- se- * * *|
 F8 z4 G4 | F6 _E2 D4 E4 | _E4 C4 D8- | D4 C4 B,4 G,4 | A,6 G,2 A,4 B,4 | A,4 D4 C4 B,4 | %55
w: ten met|gro- ter eer, met|gro- ter eer,|_ met gro- ter|eer, met gro- ter|eer, met gro- ter|
 C4 G,4 D2 E2 F2 D2 | E2 F2 G4 F4 E4 | D8 z4 G,4 | D2 E2 F2 D2 _E4 D4 | D4 C4 D2 E2 F2 D2 | %60
w: eer, in dy- en he- mel|al- zoe schon, al zoe|schon, in|dy- en he- mel al- zoe|schon, in dy- en he- mel|
 _E4 D2 C2 D4 D4 | C4 B,4 _E6 D2 | C4 D4 _E8 | D16 |] %64
w: al- zoe _ schon, in|dy- nen he- mel|al- zoe scho-|ne.|
V:3
 x16 | z16 | x16 | F,16 | A,12 C4 | D12 C4 | B,4 A,4 G,6 A,2 | B,12 A,2 G,2 | A,4 D,4 F,6 G,2 | %9
w: |||Tot|u hief|ick myn|o- gen lie- ve|Heer, _ _|_ tot u hief|
 A,4 B,4 C4 D4- | D4 C6 B,2 A,2 G,2 | A,4 A,4 G,4 G,4 | B,4 C2 C2 D6 C2 | B,4 A,2 G,2 A,4 C4 | %14
w: ick myn o- *|* gen _ _ _|lie- ve Heer hier|bo- ven tot u- wen|thro- * * ne, hier|
 B,4 G,2 G,2 D4 B,4 | A,2 G,2 F,2 E,2 F,4 G,4- | G,4 ^F,4 G,4 G,4 | B,4 B,2 C2 D4 C4 | %18
w: bo- ven tot u- wen|thro- * * * * *|* * ne, hier|bo- ven tot u- wen|
 B,8 A,4 A,4 | C12 B,4 | A,2 G,2 F,2 E,2 D,8 | z8 G,8 | B,4 B,2 C2 D4 C4- | C2 B,2 B,8 A,4 | %24
w: thro- ne, tot|u- wen|thro- * * * ne,|hier-|bo- ven tot u- *|* * * wen|
 B,4 G,4 z8 | z4 D8 D4 | C4 B,2 A,2 B,8- | B,8 z4 F,4 | G,4 B,8 F,4 | G,8 D,4 D,4 | _E,8 D,4 A,4 | %31
w: thro- ne,|daer gy|zyt _ _ _|_ daer|gy zyt ge-|se- ten, ge-|se- ten met|
 B,4 C6 B,2 A,2 G,2 | A,4 B,6 A,2 G,2 F,2 | G,2 F,2 E,2 D,2 E,4 E,4 | D,8 z4 D,4 | %35
w: gro- ter _ _ _|eer, met _ _ _|gro- * * * * ter|eer, in|
 G,2 A,2 B,2 G,2 A,2 B,2 C4- | C4 B,4 C4 B,4 | A,8 z4 D,4 | G,2 A,2 B,2 G,2 A,6 B,2 | %39
w: dy- nen he- mel al- zoe scho-|* ne, al- zoe|schon, in|dy- en he- mel al- zoe|
 C4 B,4 A,4 G,4- | G,4 F,4 G,4 B,4 | B,4 A,4 G,4 D4- | D4 C6 B,2 B,4- | B,4 A,4 B,4 G,4 | %44
w: schon, al- zoe scho-|* * ne, in|dy- nen he- mel|_ al- * *|* zoe scho- ne,|
 z8 z4 D4- | D4 D4 C4 B,2 A,2 | B,16 | z4 F,4 G,4 B,4- | B,4 F,4 G,8 | D,4 D,4 _E,8 | %50
w: daer|_ gy zyt _ _|_|daer gy zyt|_ ge- se-|ten, ge- se-|
 D,4 A,4 B,4 C4- | C2 B,2 A,2 G,2 A,4 B,4- | B,2 A,2 G,2 F,2 G,2 F,2 E,2 D,2 | E,4 E,4 D,8 | %54
w: ten met gro- ter|_ _ _ _ eer, met|_ _ _ _ gro- * * *|* ter eer,|
 z4 D,4 G,2 A,2 B,2 G,2 | A,2 B,2 C8 B,4 | C4 B,4 A,8 | z4 D,4 G,2 A,2 B,2 G,2 | A,6 B,2 C4 B,4 | %59
w: in dy- en he- mel|al- zoe scho- ne,|al- zoe schon,|in dy- nen he- mel|al- zoe schon, al-|
 A,4 G,8 F,4 | G,8 A,8 | z4 D4 C2 C2 C2 D2 | _E4 D6 C2 C4- | C4 =B,2 A,2 B,8 |] %64
w: zoe scho- *|ne, _|in dy- nen he- mel|al- zoe _ scho-|* * * ne.|
V:4
 x16 | z16 | x16 | D,16 | D,12 C,4 | B,,2 C,2 D,2 E,2 F,4 F,4 | G,4 D,4 _E,4 E,4 | B,,6 C,2 D,8- | %8
w: |||Tot|u hief|ick _ _ _ _ myn|o- gen lie- ve|Heer, _ _|
 D,8 z4 D,4 | D,4 D,4 C,4 B,,2 C,2 | D,2 E,2 F,8 _E,4 | D,4 D,4 G,,4 G,4 | G,4 C,2 C,2 G,8- | %13
w: _ tot|u hief ick myn _|_ _ o- gen|lie- ve Heer hier|bo- ven tot u-|
 G,4 F,2 E,2 D,4 C,4 | G,,8 B,,4 B,,2 C,2 | D,12 B,,4 | A,,8 G,,8 | z8 z4 A,,4 | %18
w: * wen _ thro- ne,|hier bo- ven tot|u- wen|thro- ne,|hier|
 B,,4 B,,2 C,2 D,4 D,4 | C,6 D,2 E,2 F,2 G,4 | D,4 D,4 F,4 F,2 G,2 | A,4 B,6 A,2 G,2 F,2 | %22
w: bo- ven tot u- wen|thro- * * * *|ne, hier- bo- ven tot|u- wen _ _ _|
 G,8 F,8 | B,,8 z4 F,4 | G,4 B,8 F,4 | G,6 F,2 D,2 E,2 F,2 D,2 | E,2 F,2 G,8 D,4 | %27
w: thro- ne,|_ daer|gy zyt ge-|se- * * * * *|* * ten met|
 _E,6 D,2 B,,4 D,4 | C,4 G,,4 D,8 | z8 z4 F,4 | G,4 B,8 F,4 | G,4 C,4 _E,8 | D,6 C,2 B,,4 C,4 | %33
w: gro- ter eer, met|gro- ter eer,|daer|gy zyt ge-|se- ten met|gro- ter eer, met|
 G,,4 B,,4 A,,8 | z4 G,,4 D,2 E,2 F,2 D,2 | E,2 F,2 G,4 F,4 E,4 | D,8 C,4 G,,4 | %37
w: gro- ter eer,|in dy- nen he- mel|al- zoe scho- ne, al-|zoe scho- ne,|
 z4 A,,4 D,2 E,2 F,2 D,2 | _E,4 E,4 D,8 | C,4 G,4 F,4 _E,4 | D,8 z4 G,,4 | %41
w: in dy- nen he- mel|al- zoe scho-|ne, al- zoe scho-|ne, in|
 D,2 E,2 F,2 D,2 E,2 F,2 G,4 | F,8 B,,8 | z4 F,4 G,4 B,4- | B,4 F,4 G,6 F,2 | %45
w: dy- nen he- mel al- zoe scho-|ne, _|daer gy zyt|_ ge- se- *|
 D,2 E,2 F,2 D,2 E,2 F,2 G,4- | G,4 D,4 _E,6 D,2 | B,,4 D,4 C,4 G,,4 | D,8 z8 | z4 F,4 G,4 B,4- | %50
w: * * * * * * ten|_ met gro- ter|eer, met gro- ter|eer,|daer gy zyt|
 B,4 F,4 G,4 C,4 | _E,8 D,6 C,2 | B,,4 C,4 G,,4 B,,4 | A,,8 z4 G,,4 | D,2 E,2 F,2 D,2 E,2 F,2 G,4 | %55
w: _ ge- se- ten|met gro- ter|eer, met gro- ter|eer, in|dy- en he- mel al- zoe scho-|
 F,4 E,4 D,8 | C,4 G,,4 z4 A,,4 | D,2 E,2 F,2 D,2 _E,4 E,4 | D,8 C,4 G,4 | F,4 _E,4 D,8 | %60
w: ne, al- zoe|scho- ne, in|dy- nen he- mel al- zoe|scho- ne, al-|zoe scho- ne,|
 z4 G,,4 D,2 E,2 F,2 D,2 | E,2 F,2 G,4 C,4 C,4- | C,4 =B,,4 C,8 | G,,16 |] %64
w: in dy- nen he- mel|al- zoe scho- ne, al|_ zoe scho-|ne.|

